!!!OTL: 47. Skotshne
!!!Genre:	Skotshne
!!!Mode:	Minor
!!!Listening/dance:	listening
!!!:	*g:dor; *G:; *g:dor
!!!One_Mode:	no
**kern
*thru
*I"P1
*clefG2
*k[b-e-]
*G:
=13:|!|:
*k[f#]
*G:
!LO:TX:a:i:t=G-major
16ccLL
16cc
16b
16aJJ
16bLL
16d
16g
16bJJ
=14
16aLL
16d
16f#
16aJJ
16gLL
16a
16b
16ccJJ
=15
16ddLL
16dd
16cc
16bJJ
16aLL
16b
16cc
16ddJJ
=16
4.b
8gg
=17
16ggLL
16aa-X
16gg
16ff#JJ
16ggLL
16an
16b
16ccJJ
=18
16bLL
16cc
16b
16aJJ
4b
=19
16aLL
16b
16cc
16ddJJ
16bLL
16g
16a
16f#JJ
=20
4g
4G
=21:|!|:
*>B
!LO:TX:a:i:t=G-major
16ccLL
16cc
16b
16aJJ
16bLL
16d
16g
16bJJ
=14
16aLL
16d
16f#
16aJJ
16gLL
16a
16b
16ccJJ
=15
16ddLL
16dd
16cc
16bJJ
16aLL
16b
16cc
16ddJJ
=16
4.b
8gg
=17
16ggLL
16aa-X
16gg
16ff#JJ
16ggLL
16an
16b
16ccJJ
=18
16bLL
16cc
16b
16aJJ
4b
=19
16aLL
16b
16cc
16ddJJ
16bLL
16g
16a
16f#JJ
=20
4g
4G
!!!End-Modulation
*-
